X:18463
T:Waltz. CJF.100
M:2/4
L:1/16
Q:80
S: C.J.Fox MS, 1829/33, Beverley,E.Yorks.
R:?
O:England
A:East Yorkshire
B:Kidson Coll.Mitchell Lib.M1805
N:Title is Waltz and TS is 2/4 in MS. - PJ
Z:P J Headford 2000
K:G
Bc|d2g2 fgaf|g2b2 d2^d2|e2c'b abag|fgfe dcBc|!\
d2g2 fgaf|g2b2 d2^d2|ecc'a g2f2|hg4dcBc:||!
dgfa gbgd|dcBc A3B|dfag fedc|B2G2 GBdg|!\
egfg agfg|dgfg agfg|ec'e'd' c'd'c'b|agfe " D.C."dcBc||


